X: 1
T: North Sea Crossing
R: waltz
M: 3/4
L: 1/8
K: Dmaj
Ade|:f2 a3 f|gf ef fe|df ed cB|A4 AF|
G2 GF GA|AB d2 ed|f2 fa ed|e3 e dc|
d2 ed dc|d2 ed dc|de ed cA|G2 F3 G|
A2 c3 A|cd AF FD|E2 ED EF|1 D3 A de:|2 D4 ag||
f2 fd Af|e2 =c2 G2|AG Ae ed|=c3 B BG|
A2 f2 fd|f (a3 a2)|AB df fd|e3 e de|
f2 fd Af|e2 =c2 G2|AG Ae ed|(=c3 c2)|
b3 a ag|ga af fd|e2 ed ef|d3 A de||

